Adwaita++-Dark/actions/22/object-flip-vertical.svg

<svg height="22" viewBox="0 0 22 22" width="22" xmlns="http://www.w3.org/2000/svg">
  <path d="m8 .00390625-3 4.99999995h2v5.9999998h-2l3 5 3-5h-2v-5.9999998h2z" fill="#e6ddff" transform="translate(3 3)"/>
</svg>

<svg xmlns="http://www.w3.org/2000/svg" width="22" height="22" viewBox="0 0 22 22">
 <defs>
  <style id="current-color-scheme" type="text/css">
   .ColorScheme-Text { color:#E6DDFF; } .ColorScheme-Highlight { color:#4285f4; }
  </style>
 </defs>
 <path style="fill:currentColor" class="ColorScheme-Text" d="M 8 0.00390625 L 5 5.0039062 L 7 5.0039062 L 7 11.003906 L 5 11.003906 L 8 16.003906 L 11 11.003906 L 9 11.003906 L 9 5.0039062 L 11 5.0039062 L 8 0.00390625 z" transform="translate(3 3)"/>
</svg>
